build/fonts/cisco/h.323.svg

<?xml version="1.0" encoding="UTF-8" standalone="no"?>
<svg
   xmlns:dc="http://purl.org/dc/elements/1.1/"
   xmlns:cc="http://creativecommons.org/ns#"
   xmlns:rdf="http://www.w3.org/1999/02/22-rdf-syntax-ns#"
   xmlns:svg="http://www.w3.org/2000/svg"
   xmlns="http://www.w3.org/2000/svg"
   viewBox="0 0 31.25 32.5"
   height="32.5"
   width="31.25"
   xml:space="preserve"
   version="1.1"
   id="svg2"><metadata
     id="metadata8"><rdf:RDF><cc:Work
         rdf:about=""><dc:format>image/svg+xml</dc:format><dc:type
           rdf:resource="http://purl.org/dc/dcmitype/StillImage" /></cc:Work></rdf:RDF></metadata><defs
     id="defs6"><clipPath
       id="clipPath18"
       clipPathUnits="userSpaceOnUse"><path
         id="path20"
         d="M 0,9 0,258 250,258 250,9 0,9 Z" /></clipPath></defs><g
     transform="matrix(1.25,0,0,-1.25,0,32.5)"
     id="g10"><g
       transform="scale(0.1,0.1)"
       id="g12"><g
         id="g14"><g
           clip-path="url(#clipPath18)"
           id="g16"><path
             id="path22"
             style="fill:none;stroke:#ffffff;stroke-width:3.99993992;stroke-linecap:butt;stroke-linejoin:miter;stroke-miterlimit:4;stroke-dasharray:none;stroke-opacity:1"
             d="m 6.51953,49.7578 243.55847,0" /><path
             id="path24"
             style="fill:#02709f;fill-opacity:1;fill-rule:nonzero;stroke:none"
             d="m 214.609,14.0156 35.469,35.7422" /><path
             id="path26"
             style="fill:none;stroke:#ffffff;stroke-width:3.99993992;stroke-linecap:butt;stroke-linejoin:miter;stroke-miterlimit:4;stroke-dasharray:none;stroke-opacity:1"
             d="m 214.609,14.0156 35.469,35.7422" /><path
             id="path28"
             style="fill:#02709f;fill-opacity:1;fill-rule:nonzero;stroke:none"
             d="m 4.83984,14.8359 209.488,0 0,157.93 -209.488,0 0,-157.93 z" /><path
             id="path30"
             style="fill:none;stroke:#ffffff;stroke-width:3.99993992;stroke-linecap:butt;stroke-linejoin:miter;stroke-miterlimit:4;stroke-dasharray:none;stroke-opacity:1"
             d="m 4.83984,14.8359 209.488,0 0,157.93 -209.488,0 0,-157.93 z" /><path
             id="path32"
             style="fill:#02709f;fill-opacity:1;fill-rule:nonzero;stroke:none"
             d="m 214.34,14.8359 35.738,35.7383 0,157.9338 -209.4882,0 -35.74996,-35.742 209.50016,0 0,-157.9301" /><path
             id="path34"
             style="fill:none;stroke:#ffffff;stroke-width:3.99993992;stroke-linecap:butt;stroke-linejoin:miter;stroke-miterlimit:4;stroke-dasharray:none;stroke-opacity:1"
             d="m 214.34,14.8359 35.738,35.7383 0,157.9338 -209.4882,0 -35.74996,-35.742 209.50016,0 0,-157.9301 z" /><path
             id="path36"
             style="fill:#02709f;fill-opacity:1;fill-rule:nonzero;stroke:none"
             d="m 23.1211,33.1055 172.891,0 0,121.371 -172.891,0 0,-121.371 z" /><path
             id="path38"
             style="fill:none;stroke:#ffffff;stroke-width:3.99993992;stroke-linecap:butt;stroke-linejoin:miter;stroke-miterlimit:4;stroke-dasharray:none;stroke-opacity:1"
             d="m 23.1211,33.1055 172.891,0 0,121.371 -172.891,0 0,-121.371 z" /><path
             id="path40"
             style="fill:#02709f;fill-opacity:1;fill-rule:nonzero;stroke:none"
             d="m 214.34,172.766 35.738,35.742" /><path
             id="path42"
             style="fill:none;stroke:#ffffff;stroke-width:3.99993992;stroke-linecap:butt;stroke-linejoin:miter;stroke-miterlimit:4;stroke-dasharray:none;stroke-opacity:1"
             d="m 214.34,172.766 35.738,35.742" /><path
             id="path44"
             style="fill:#02709f;fill-opacity:1;fill-rule:nonzero;stroke:none"
             d="m 84.8398,176.086 55.7383,0 0,50.4297 -55.7383,0 0,-50.4297 z" /><path
             id="path46"
             style="fill:none;stroke:#ffffff;stroke-width:3.99993992;stroke-linecap:butt;stroke-linejoin:miter;stroke-miterlimit:4;stroke-dasharray:none;stroke-opacity:1"
             d="m 84.8398,176.086 55.7383,0 0,50.4297 -55.7383,0 0,-50.4297 z" /><path
             id="path48"
             style="fill:#02709f;fill-opacity:1;fill-rule:nonzero;stroke:none"
             d="m 140.59,176.086 30.738,29.488 0,50.434 -55.738,0 -30.7502,-29.492 55.7502,0 0,-50.43" /><path
             id="path50"
             style="fill:none;stroke:#ffffff;stroke-width:3.99993992;stroke-linecap:butt;stroke-linejoin:miter;stroke-miterlimit:4;stroke-dasharray:none;stroke-opacity:1"
             d="m 140.59,176.086 30.738,29.488 0,50.434 -55.738,0 -30.7502,-29.492 55.7502,0 0,-50.43 z" /><path
             id="path52"
             style="fill:#02709f;fill-opacity:1;fill-rule:nonzero;stroke:none"
             d="m 140.59,226.516 30.738,29.492" /><path
             id="path54"
             style="fill:none;stroke:#ffffff;stroke-width:3.99993992;stroke-linecap:butt;stroke-linejoin:miter;stroke-miterlimit:4;stroke-dasharray:none;stroke-opacity:1"
             d="m 140.59,226.516 30.738,29.492" /></g></g></g></g></svg>

<svg xmlns="http://www.w3.org/2000/svg" viewBox="0 0 31.25 32.5" height="32.5" width="31.25"><defs><clipPath id="a"><path d="M0 9v249h250V9H0z"/></clipPath></defs><g clip-path="url(#a)" transform="matrix(.13 0 0 -.13 0 32.5)"><path d="M6.52 49.758h243.558" fill="none" stroke="#fff" stroke-width="4"/><path d="M214.609 14.016l35.469 35.742" fill="#02709f"/><path d="M214.609 14.016l35.469 35.742" fill="none" stroke="#fff" stroke-width="4"/><path d="M4.84 14.836h209.488v157.93H4.84V14.836z" fill="#02709f"/><path d="M4.84 14.836h209.488v157.93H4.84V14.836z" fill="none" stroke="#fff" stroke-width="4"/><path d="M214.34 14.836l35.738 35.738v157.934H40.59L4.84 172.766h209.5V14.836" fill="#02709f"/><path d="M214.34 14.836l35.738 35.738v157.934H40.59L4.84 172.766h209.5V14.836z" fill="none" stroke="#fff" stroke-width="4"/><path d="M23.121 33.105h172.891v121.371H23.122V33.106z" fill="#02709f"/><path d="M23.121 33.105h172.891v121.371H23.122V33.106z" fill="none" stroke="#fff" stroke-width="4"/><path d="M214.34 172.766l35.738 35.742" fill="#02709f"/><path d="M214.34 172.766l35.738 35.742" fill="none" stroke="#fff" stroke-width="4"/><path d="M84.84 176.086h55.738v50.43H84.84v-50.43z" fill="#02709f"/><path d="M84.84 176.086h55.738v50.43H84.84v-50.43z" fill="none" stroke="#fff" stroke-width="4"/><path d="M140.59 176.086l30.738 29.488v50.434H115.59l-30.75-29.492h55.75v-50.43" fill="#02709f"/><path d="M140.59 176.086l30.738 29.488v50.434H115.59l-30.75-29.492h55.75v-50.43z" fill="none" stroke="#fff" stroke-width="4"/><path d="M140.59 226.516l30.738 29.492" fill="#02709f"/><path d="M140.59 226.516l30.738 29.492" fill="none" stroke="#fff" stroke-width="4"/></g></svg>
